svgs/unofficial/fto.svg

<svg height="500" width="500" xmlns="http://www.w3.org/2000/svg"><g fill-rule="evenodd"><path d="m250 85 55-55h-110zm0 140 55-55h-110zm-140-140 55-55h-110zm280 0 55-55h-110zm-210-52.3 55 55h-110zm140 0 55 55h-110zm-140 122.3 55-55h-110zm140 0 55-55h-110zm-70-52.3 55 55h-110z"/><path d="m415 250 55 55v-110zm-140 0 55 55v-110zm140-140 55 55v-110zm0 280 55 55v-110zm52.3-210-55 55v-110zm0 140-55 55v-110zm-122.3-140 55 55v-110zm0 140 55 55v-110zm52.3-70-55 55v-110z"/><path d="m85 250-55-55v110zm140 0-55-55v110zm-140 140-55-55v110zm0-280-55-55v110zm-52.3 210 55-55v110zm0-140 55-55v110zm122.3 140-55-55v110zm0-140-55-55v110zm-52.3 70 55-55v110z"/><path d="m250 415 55 55h-110zm0-140 55 55h-110zm-140 140 55 55h-110zm280 0 55 55h-110zm-210 52.3 55-55h-110zm140 0 55-55h-110zm-140-122.3 55 55h-110zm140 0 55 55h-110zm-70 52.3 55-55h-110z"/></g></svg>

<svg width="500" height="500" xmlns="http://www.w3.org/2000/svg"><g fill="#000" fill-rule="evenodd"><path d="M250 85l55-55H195zM250 225l55-55H195zM110 85l55-55H55zM390 85l55-55H335zM180 32.7l55 55H125zM320 32.7l55 55H265zM180 155l55-55H125zM320 155l55-55H265zM250 102.7l55 55H195z"/><g><path d="M415 250l55 55V195zM275 250l55 55V195zM415 110l55 55V55zM415 390l55 55V335zM467.3 180l-55 55V125zM467.3 320l-55 55V265zM345 180l55 55V125zM345 320l55 55V265zM397.3 250l-55 55V195z"/></g><g><path d="M85 250l-55-55v110zM225 250l-55-55v110zM85 390l-55-55v110zM85 110L30 55v110zM32.7 320l55-55v110zM32.7 180l55-55v110zM155 320l-55-55v110zM155 180l-55-55v110zM102.7 250l55-55v110z"/></g><g><path d="M250 415l55 55H195zM250 275l55 55H195zM110 415l55 55H55zM390 415l55 55H335zM180 467.3l55-55H125zM320 467.3l55-55H265zM180 345l55 55H125zM320 345l55 55H265zM250 397.3l55-55H195z"/></g></g></svg>
